src/assets/img/icons/dark/icon-mail.svg

<svg width="13" height="10" viewBox="0 0 13 10" fill="none" xmlns="http://www.w3.org/2000/svg">
<path fill-rule="evenodd" clip-rule="evenodd" d="M1.29708 10H11.2029C11.9183 10 12.5 9.41667 12.5 8.70042V1.30083C12.5 0.583333 11.9183 0 11.2029 0H1.29708C0.581667 0 0 0.583333 0 1.30083V8.69917C0 9.41667 0.581667 10 1.29708 10ZM5.27793 5.54483C5.50002 5.73778 5.77207 5.83341 6.0437 5.83341C6.31533 5.83341 6.58696 5.73778 6.80823 5.54609L11.542 1.46597C11.6898 1.33916 11.7088 1.11293 11.5849 0.961693C11.4611 0.810453 11.2402 0.789389 11.092 0.917459L6.35579 4.998C6.17373 5.15556 5.90953 5.15556 5.72748 4.998L0.991252 0.917459C0.843464 0.790653 0.622195 0.810453 0.498351 0.961693C0.374506 1.11293 0.393496 1.33916 0.541284 1.46597L5.27793 5.54483Z" fill="white"/>
</svg>

<svg xmlns="http://www.w3.org/2000/svg" width="13" height="10" fill="none"><path fill="#fff" fill-rule="evenodd" d="M1.3 10h9.9c.72 0 1.3-.58 1.3-1.3V1.3c0-.72-.58-1.3-1.3-1.3H1.3C.58 0 0 .58 0 1.3v7.4C0 9.42.58 10 1.3 10zm3.98-4.46a1.16 1.16 0 001.53 0l4.73-4.07a.36.36 0 00.04-.5.34.34 0 00-.49-.05L6.36 5a.48.48 0 01-.63 0L.99.92a.34.34 0 00-.5.04c-.12.15-.1.38.05.5l4.74 4.08z" clip-rule="evenodd"/></svg>
